icon/gr/key.svg

<svg xmlns="http://www.w3.org/2000/svg" width="24" height="24"><path fill="none" stroke="#000" stroke-width="2" d="M10 13v3h3v3h3v2l2 2h5v-4L12.74 8.74C12.91 8.19 13 7.6 13 7c0-3.31-2.69-6-6-6S1 3.69 1 7a6.005 6.005 0 0 0 8.47 5.47L10 13ZM6 7a1 1 0 1 1 0-2 1 1 0 0 1 0 2Z"/></svg>

<svg xmlns="http://www.w3.org/2000/svg" viewBox="0 0 24 24" height="1em" width="1em">
  <path fill="none" stroke="#000" stroke-width="2" d="M10,13 L10,16 L13,16 L13,19 L16,19 L16,21 L18,23 L23,23 L23,19 L12.74,8.74 C12.91,8.19 13,7.6 13,7 C13,3.69 10.31,1 7,1 C3.69,1 1,3.69 1,7 C1,10.31 3.69,13 7,13 C7.88,13 8.72,12.81 9.47,12.47 L10,13 Z M6,7 C5.4475,7 5,6.5525 5,6 C5,5.4475 5.4475,5 6,5 C6.5525,5 7,5.4475 7,6 C7,6.5525 6.5525,7 6,7 Z"/>
</svg>
